X:117
T:St. Patrick's Day
N:Set (long) Dance  Allans  #117   pp30
N:Trad/Anon
N:CONVERTED FROM NOTEWORTHY COMPOSER (WWW.NOTEWORTHYSOFTWARE.COM) BY
N:ABC2NWC (HTTP://MEMBERS.AOL.COM/ABACUSMUSIC/), WITH
Z: (INTO NWC) VINCE BRENNAN 2002   (WWW.SOSYOURMOM.COM)
I:abc2nwc
M:6/8
L:1/8
K:G
D|GAG GBc|dge dBG|AGA BGD|EFE E2D|!
GAG GBc|ded dBG|AGA BGD|E2F G2:|!
|:B|def gag|fed edB|def gag|fed e2d|
def gag|fed ege|dBG GBc|dge dBG|
AGA BGD|EFE E2D|GAG GBc|ded dBG|
AGA BGD|E2F G2:|
